src/helpers/heroicons/solid/arrow-up-on-square-stack.svg

<svg width="24" height="24" viewBox="0 0 24 24" fill="none" xmlns="http://www.w3.org/2000/svg">
<path d="M9.96967 0.96967C10.2626 0.676777 10.7374 0.676777 11.0303 0.96967L14.0303 3.96967C14.3232 4.26256 14.3232 4.73744 14.0303 5.03033C13.7374 5.32322 13.2626 5.32322 12.9697 5.03033L11.25 3.31066V6.75H9.75V3.31066L8.03033 5.03033C7.73744 5.32322 7.26256 5.32322 6.96967 5.03033C6.67678 4.73744 6.67678 4.26256 6.96967 3.96967L9.96967 0.96967Z" />
<path d="M9.75 6.75V12.75C9.75 13.1642 10.0858 13.5 10.5 13.5C10.9142 13.5 11.25 13.1642 11.25 12.75V6.75H14.25C15.9069 6.75 17.25 8.09315 17.25 9.75V17.25C17.25 18.9069 15.9069 20.25 14.25 20.25H6.75C5.09315 20.25 3.75 18.9069 3.75 17.25V9.75C3.75 8.09315 5.09315 6.75 6.75 6.75H9.75Z" />
<path d="M7.15137 21.75C7.67008 22.6467 8.6396 23.25 9.75002 23.25H17.25C18.9069 23.25 20.25 21.9069 20.25 20.25V12.75C20.25 11.6396 19.6467 10.6701 18.75 10.1514V17.25C18.75 19.7353 16.7353 21.75 14.25 21.75H7.15137Z" />
</svg>

<svg xmlns="http://www.w3.org/2000/svg" viewBox="0 0 24 24" fill="currentColor" aria-hidden="true" data-slot="icon">
  <path d="M9.97.97a.75.75 0 0 1 1.06 0l3 3a.75.75 0 0 1-1.06 1.06l-1.72-1.72v3.44h-1.5V3.31L8.03 5.03a.75.75 0 0 1-1.06-1.06l3-3ZM9.75 6.75v6a.75.75 0 0 0 1.5 0v-6h3a3 3 0 0 1 3 3v7.5a3 3 0 0 1-3 3h-7.5a3 3 0 0 1-3-3v-7.5a3 3 0 0 1 3-3h3Z"/>
  <path d="M7.151 21.75a2.999 2.999 0 0 0 2.599 1.5h7.5a3 3 0 0 0 3-3v-7.5c0-1.11-.603-2.08-1.5-2.599v7.099a4.5 4.5 0 0 1-4.5 4.5H7.151Z"/>
</svg>
